X:165
T:The Irish Champion
N:"With spirit" "collected by F. O'Neill"
B:O'Neill's 165
Z:Transcribed by henrik.norbeck@mailbox.swipnet.se
Z:The f in bar 6 should be an 1/8 note.
M:6/8
L:1/8
K:D
A/G/|F2 A d2 f|e2 c A2 B|dcBc d2 d|d3- d2 g|
f2 d f2 g|a2 f2 g2 a/g/|f2 d c2 B|A3- A2 g|
f2 d f2 g|a2 f g2 a/g/|f2 d c2 B|A3- A2 A|
.B2 .B g2 f|.e2 .c A2 B|dcBc .d2 .d|d3- d2||
